X: 35
T: VALSE AUVERGNATE
M: 3/4
L: 1/8
Q:1/4=80
K:G 
|:d3/2c/2d edG|1B3/2A/2G A3/2B/2c:2|B3/2A/2G A2D|!
|GFE DAB| d3/2c/2d edG B3/2A/2G A2D|!
|:GFE DAB|cA/2c/2A/2F/2 AGD|GFE DAB|cAF G3:|
